X: 8521
T: Creel Of Turf, The
R: jig
M: 6/8
K: Edorian
|:E|EBB BAG|FDF AGF|EBB Bcd|AGF E3|
EBB BAG|FDF AGF|GAB Bcd|AGF E2:|
|:e|Eee efg|dcB AGF|Eee efg|fdf e3|
Eee efg|dcB AGF|GAB Bcd|AGF E2:|
|:F|GBE GBE|FAD FAD|GBE GBd|AGF E2F|
GBE GBE|FAD FAD|GAG GBd|AGF E2:|
|:g|f2d fad|gbe gbe|f2d fad|gfg efg|
agf gfe|dcB AFD|GAG GBd|AGF E2:|
|:=c|(3BdB G (3BdB G|FAD FAD|(3BdB G Bcd|AGF E2=c|
(3BdB G (3BdB G|FAD FAD|GAG GBd|AGF E2:|

